!!!!SEGMENT:pl-kk--kk-i-513--008_haser-august-ferdinand-miserere-asperges-me-hysopo.krn
!!!id: 17xx:1848
!!!COM: Häser, August Ferdinand
!!!OTL: Miserere - Asperges me hysopo
!!!PDT:
!!!SMS-siglum: PL-Kk
!!!SMS-shelfmark: Kk.I.513
!!!SMS-variant:
!!!SMS-altvar:
!!!NIFC-rismID: 1001138495
!!!system-decoration: [(s1,s2,s3,s4)][(s5,s6)]
**kern	**kern	**kern	**text	**kern	**text	**text	**dynam	**kern	**text	**dynam	**kern	**text	**dynam
*part6	*part5	*part4	*part4	*part3	*part3	*part3	*part3	*part2	*part2	*part2	*part1	*part1	*part1
*staff6	*staff5	*staff4	*staff4	*staff3	*staff3	*staff3	*	*staff2	*staff2	*	*staff1	*staff1	*
*I"Organo 2	*I"Organo 1	*I"Basso.	*	*I"Tenore.	*	*	*	*I"Alto	*	*	*I"Soprano.	*	*
*	*I'org	*I'B	*	*I'T	*	*	*	*I'A	*	*	*I'S	*	*
*clefF4	*clefG2	*clefF4	*	*clefC4	*	*	*	*clefG2	*	*	*clefG2	*	*
*k[]	*k[]	*k[]	*	*k[]	*	*	*	*k[]	*	*	*k[]	*	*
*M3/4	*M3/4	*M3/4	*	*M3/4	*	*	*	*M3/4	*	*	*M3/4	*	*
=1	=1	=1	=1	=1	=1	=1	=1	=1	=1	=1	=1	=1	=1
*2\right	*2\right	*2\right	*	*2\right	*	*	*	*2\right	*	*	*2\right	*	*
!LO:TX:t=P:problem:all\right:global	!LO:TX:t=P:problem:all\right:global	!LO:TX:t=P:problem:all\right:global	!	!LO:TX:t=P:problem:all\right:global	!	!	!	!LO:TX:t=P:problem:all\right:global	!	!	!LO:TX:t=P:problem:all\right:global	!	!
!	!	!	!	!	!	!	!	!LO:TX:a:Bi:t=N 8.:problem:'N 8.' znajduje się przed kluczem i oznaczeniem metrum na pięciolinii	!	!	!LO:TX:a:Bi:t=No. 8:problem:'No. 8' znajduje się przed kluczem i oznaczeniem metrum na pięciolinii	!	!
!	!LO:TX:a:Bi:t=N 8.:problem:'N 8.' znajduje się przed kluczem i oznaczeniem metrum	!LO:TX:a:Bi:t=N 8.:problem:'N 8.' znajduje się przed kluczem i oznaczeniem metrum na pięciolinii	!	!LO:TX:a:Bi:t=N 8.:problem:'N 8.' znajduje się przed kluczem i oznaczeniem metrum na pięciolinii	!	!	!	!	!	!	!	!	!
!	!LO:TX:t=P:w źródle brak oznaczenia tempa:problem	!	!	!	!	!	!	!	!	!	!LO:TX:t=P:w źródle brak oznaczenia tempa:problem	!	!
!	!	!LO:TX:a:Bi:t=2	!	!LO:TX:a:Bi:t=Soli	!	!	!	!LO:TX:a:Bi:t=Soli	!	!	!LO:TX:a:Bi:t=Soli:rj	!	!
!	!	!LO:TX:a:Bi:t=Andante:rj	!	!LO:TX:a:Bi:t=Andante:rj	!	!	!	!LO:TX:b:Bi:t=Andante.:rj	!	!	!LO:TX:a:Bi:t=1	!	!
!	!	!LO:N:vis=0	!	!	!	!	!	!	!	!LO:DY:b:rj	!	!	!LO:DY:b
4c>\	4e/	1.r	.	4c\	A-	.	.	4e/	A-	mf	2.r	.	p
4d>\	4f/	.	.	4d\	-sper-	.	.	4f/	-sper-	.	.	.	.
8.f>\L	8.a/L	.	.	8.f\L	-ges	.	.	8.a/L	-ges	.	.	.	.
16e>\Jk	16g/Jk	.	.	16e\Jk	.	.	.	16g/Jk	.	.	.	.	.
=2	=2	=2	=2	=2	=2	=2	=2	=2	=2	=2	=2	=2	=2
*	*^	*	*	*	*	*	*	*	*	*	*	*	*
!	!	!	!	!	!	!	!	!	!	!	!	!LO:TX:a:Bi:t=Andante	!	!
!	!	!	!	!	!LO:SIC:s=2e:v	!	!	!	!	!	!	!	!	!
2e\	8r	2g\	.	.	2d\	me	.	.	2g/	me	.	8r	.	.
!	!	!	!	!	!	!	!	!	!	!	!	!	!	!LO:DY:b:rj
.	8ee/	.	.	.	.	.	.	.	.	.	.	8ee\	A-	p
.	8dd/L	.	.	.	.	.	.	.	.	.	.	8dd\	-sper-	.
.	8cc/J	.	.	.	.	.	.	.	.	.	.	8cc\	-ges	.
4c\	8b/L	4e\	.	.	4c\	hy-	.	.	4e/	hy-	.	8b\	me	.
.	8a/J	.	.	.	.	.	.	.	.	.	.	8a/	hys-	.
*	*v	*v	*	*	*	*	*	*	*	*	*	*	*	*
=3	=3	=3	=3	=3	=3	=3	=3	=3	=3	=3	=3	=3	=3
!LO:TX:a:t=P:problem:pominięty fragment	!LO:TX:a:t=P:problem:pominięty fragment	!	!	!	!	!	!	!	!	!	!	!	!
!	!LO:TX:a:t=o:problem:wygląda na oznaczenie dopisku natomiast w źródle nie można go zlokalizować	!	!	!	!	!	!	!	!	!	!	!	!
2.ryy	2.ryy	4r	.	4B\	-so-	.	.	4d/	-so-	.	(<8.g/L	-so-	.
.	.	.	.	.	.	.	.	.	.	.	16f/Jk)	.	.
.	.	4r	.	4c\	-po	.	.	4e/	-po	.	4e/	-po	.
!	!	!	!	!	!	!	!	!	!	!	!LO:TX:a:Bi:t=tutti	!	!
.	.	8.F\	et	8.A\	et	.	.	8.c/	et	.	8.a\	et	.
.	.	16F\	mun-	16A\	mun-	.	.	16d/	mun-	.	16a\	mun-	.
=4	=4	=4	=4	=4	=4	=4	=4	=4	=4	=4	=4	=4	=4
4B 4E\	4g#X 4d/	4E\	-da-	4B\	-da-	.	.	4d/	-da-	.	4g#X/	-da[[bor]]-	.
4A 4AA\	4a 4c/	4AA/	-bor	4A\	-bor	.	.	4c/	-bor	.	4a/	-bor,	.
4r	4r	4r	.	4r	.	.	.	4r	.	.	4r	.	.
=5	=5	=5	=5	=5	=5	=5	=5	=5	=5	=5	=5	=5	=5
!	!	!	!	!	!	!	!	!LO:TX:a:Bi:t=1	!	!	!LO:TX:a:Bi:t=2	!	!
!	!	!	!	!	!	!	!	!	!	!	!LO:N:vis=0	!	!
4A\	4c/	4A\	as-	4c\	a-	.	.	2.r	.	.	1.r	.	.
4B\	4d/	4B\	-per-	4d\	-sper-	.	.	.	.	.	.	.	.
8.d\L	8.f/L	8.d\L	-ges	8.f\L	-ges	.	.	.	.	.	.	.	.
16c\Jk	16e/Jk	16c\Jk	.	16e\Jk	.	.	.	.	.	.	.	.	.
=6	=6	=6	=6	=6	=6	=6	=6	=6	=6	=6	=6	=6	=6
2e 2c\	8r	2c\	me	2e\	me	.	.	8r	.	.	.	.	.
!	!	!	!	!	!	!	!	!LO:TX:a:Bi:t=Soli	!	!	!	!	!
.	8cc/	.	.	.	.	.	.	8cc\	A-	.	.	.	.
.	8b/L	.	.	.	.	.	.	8b\	-sper-	.	.	.	.
.	8a/	.	.	.	.	.	.	8a/	-ges	.	.	.	.
4c 4A\	8g/	4A\	hys-	4c\	hy-	.	.	8g/	me	.	.	.	.
.	8f/J	.	.	.	.	.	.	8f/	hy-	.	.	.	.
!LO:LB:g=original	!LO:LB:g=original	!	!	!LO:LB:g=original	!	!	!	!LO:LB:g=original	!	!	!LO:LB:g=original	!	!
=7	=7	=7	=7	=7	=7	=7	=7	=7	=7	=7	=7	=7	=7
*^	*^	*	*	*	*	*	*	*	*	*	*	*	*
!	!	!	!	!	!	!	!	!	!	!	!	!	!LO:TX:a:Bi:t=tutti	!	!
4B 4G#X\	4ryy	8.e/L	4ryy	4G#X\	-so-	4B\	-so-	.	.	8.e/L	-so-	.	4r	.	.
.	.	16d/Jk	.	.	.	.	.	.	.	16d/Jk	.	.	.	.	.
4A\	4ryy	4c/	4ryy	4A\	-po	4c\	-po	.	.	4c/	-po	.	4r	.	.
!	!	!	!	!	!	!	!	!	!	!LO:TX:a:Bi:t=tutti	!	!	!	!	!
4d/	8.F\L	8.ee/L	4a\	8.F\	et	8.d\	et	.	.	8.a/	et	.	8.ee\	et	.
.	16D\Jk	16ff/Jk	.	16D\	mun-	16d\	mun-	.	.	16a/	mun-	.	16ff\	mun-	.
!	!	!	!	!LO:LB:g=original	!	!	!	!	!	!	!	!	!	!	!
*v	*v	*	*	*	*	*	*	*	*	*	*	*	*	*	*
*	*v	*v	*	*	*	*	*	*	*	*	*	*	*	*
=8	=8	=8	=8	=8	=8	=8	=8	=8	=8	=8	=8	=8	=8
4d 4G\	4b 4f/	4G\	-da-	4d\	-da-	.	.	4f/	-da-	.	4b\	-da-	.
4G 4C\	4cc 4e/	4C/	-bor	4c\	-bor	.	.	4e/	-bor	.	4cc\	-bor	.
4r	4r	4r	.	4r	.	.	.	4r	.	.	4r	.	.
=9	=9	=9	=9	=9	=9	=9	=9	=9	=9	=9	=9	=9	=9
*	*^	*	*	*	*	*	*	*	*	*	*	*	*
!	!	!	!	!	!	!	!	!LO:DY:b:rj	!	!	!LO:DY:b:rj	!	!	!
4c 4F#X\	2.dd/	4a\	4F#X\	la-	4c\	la-	.	p	4a/	la-	p	4dd\	la-	.
4B 4G\	.	4g\	4G\	-va-	4B\	-va-	.	.	4g/	-va-	.	4dd\	-va-	.
4c 4A\	.	4f#X\	4A\	-bis	4c\	-bis	.	.	4f#X/	-bis	.	4dd\	-bis	.
=10	=10	=10	=10	=10	=10	=10	=10	=10	=10	=10	=10	=10	=10	=10
4.B\	4.dd/	2g\	4.B\	me,	4.d\	me	.	.	4.g/	me	.	4.dd\	me	.
!LO:TX:t=P:w źródle dopisana ołówkiem nuta 8A#:problem	!	!	!	!	!	!	!	!	!	!	!	!	!	!
8B\	8cc#X/L	.	8A#X\	et	8g\	et	.	.	8g/	et	.	8cc#X\	et	.
8B\L	8dd/	8g\L	8B\	su-	8g\	su-	.	.	8g/	su-	.	8dd\	su-	.
8B\J	8dd#X/J	8f#X\J	8B\	-per	8f#X\	-per	.	.	8a/	-per	.	8dd#X\	-per	.
=11	=11	=11	=11	=11	=11	=11	=11	=11	=11	=11	=11	=11	=11	=11
2.e 2.c\	2.ee/	4.g\	4.c\	ni-	4.e\	ni-	.	.	4.g/	ni-	.	4.ee\	ni-	.
.	.	8g#X\L	8c\	-vem	8e\	-vem	.	.	8g#X/	-vem	.	8ee\	-vem	.
.	.	8a\	8c\	de-	8d\	de-	.	.	8a/	de-	.	8ee\	de-	.
.	.	8a#X\J	8c\	-al-	8e\	-al-	.	.	8a#X/	-al-	.	8ee\	-al-	.
!	!	!	!LO:LB:g=original	!	!	!	!	!	!	!	!	!LO:LB:g=original	!	!
=12	=12	=12	=12	=12	=12	=12	=12	=12	=12	=12	=12	=12	=12	=12
!	!	!	!	!	!	!	!	!LO:DY:a:rj	!	!	!LO:DY:a:rj	!	!	!
2e 2B\	4gg/	2b\	(>2B\	-ba-	(>2e\	-ba-	.	ff	[>2b\	-ba-	f	(>4gg\	-ba-	.
.	2ff#X/	.	.	.	.	.	.	.	.	.	.	2ff#X\)	.	.
!	!	!	!	!	!LO:TX:b:Bi:t=V S.	!	!	!	!	!	!	!	!	!
4D#X 4BB\	.	8b\L	4BB/)	.	4d#X\)	-[[bor]]-	.	.	8b\L]	.	.	.	.	.
.	.	8an\J	.	.	.	.	.	.	8a\J	.	.	.	.	.
!	!	!	!	!	!LO:PB:g=original	!	!	!	!LO:LB:g=original	!	!	!	!	!
*	*v	*v	*	*	*	*	*	*	*	*	*	*	*	*
=13	=13	=13	=13	=13	=13	=13	=13	=13	=13	=13	=13	=13	=13
*^	*	*	*	*	*	*	*	*	*	*	*	*	*
4C/	4C\	[>4ee [>4gn\	4C/	-bor	4e\	-bor	[[de]]	.	4g/	-bor	.	4ee\	-bor,	.
4A/	2C#X\	2ee] 2g\]	4C#X/	de-	4A\	de-	.	.	4g/	de-	.	4ee\	de-	.
4A#X/	.	.	4C#/	-al-	4A#X\	-[[l]]al-	.	.	4g/	-al-	.	4ee\	-al-	.
=14	=14	=14	=14	=14	=14	=14	=14	=14	=14	=14	=14	=14	=14	=14
*	*	*^	*	*	*	*	*	*	*	*	*	*	*	*
4B/	2.D\	2.dd/	2g\	2.D\	-a-	4B\	-ba-	.	.	(>2g/	-ba-	.	2.dd\	-ba-	.
2An/	.	.	.	.	.	2An\	-bor.	.	.	.	.	.	.	.	.
.	.	.	4f#X\	.	.	.	.	.	.	4f#X/	.	.	.	.	.
*v	*v	*	*	*	*	*	*	*	*	*	*	*	*	*	*
*	*v	*v	*	*	*	*	*	*	*	*	*	*	*	*
=15	=15	=15	=15	=15	=15	=15	=15	=15	=15	=15	=15	=15	=15
2B 2G\	2dd 2g/	2G\	-bor.	2B\	.	.	.	2g/)	-bor	.	2dd\	-bor.	.
4r	4r	4r	.	4r	.	.	.	4r	.	.	4r	.	.
==	==	==	==	==	==	==	==	==	==	==	==	==	==
*-	*-	*-	*-	*-	*-	*-	*-	*-	*-	*-	*-	*-	*-
!!title: @{OTL};
!!!RDF**kern: > = above
!!!RDF**kern: < = below
!!!ENC: Krzysztof Stępień
!!!END: 2021-01-01
!!!EED: Wojciech Jakubiak-Danek
!!!EST: 2021-01-03
!!!URL-scan: http://repozytorium.nifc.pl/skany/pl-kk-nut--i-513
!!!ONB-nifc:
